icons/filled/coin-pound.svg

<svg xmlns="http://www.w3.org/2000/svg" width="24" height="24" viewBox="0 0 24 24" fill="currentColor"><path d="M17 3.34a10 10 0 1 1 -15 8.66l.005 -.324a10 10 0 0 1 14.995 -8.336zm-4 2.66a3 3 0 0 0 -3 3v2h-1a1 1 0 0 0 -.993 .883l-.007 .117a1 1 0 0 0 1 1h1v1a1 1 0 0 1 -.77 .974l-.113 .02l-.117 .006c-1.287 0 -1.332 1.864 -.133 1.993l.133 .007h6a1 1 0 0 0 1 -1l-.007 -.117a1 1 0 0 0 -.993 -.883h-3.171l.048 -.148a3 3 0 0 0 .123 -.852v-1h1a1 1 0 0 0 .993 -.883l.007 -.117a1 1 0 0 0 -1 -1h-1v-2a1 1 0 0 1 .883 -.993l.117 -.007a1 1 0 0 1 .993 .883l.007 .117a1 1 0 0 0 2 0a3 3 0 0 0 -3 -3z"/></svg>

<svg xmlns="http://www.w3.org/2000/svg" width="24" height="24" fill="currentColor"><path d="M17 3.34A10 10 0 1 1 2 12l.005-.324A10 10 0 0 1 17 3.34M13 6a3 3 0 0 0-3 3v2H9a1 1 0 0 0-.993.883L8 12a1 1 0 0 0 1 1h1v1a1 1 0 0 1-.77.974l-.113.02L9 15c-1.287 0-1.332 1.864-.133 1.993L9 17h6a1 1 0 0 0 1-1l-.007-.117A1 1 0 0 0 15 15h-3.171l.048-.148A3 3 0 0 0 12 14v-1h1a1 1 0 0 0 .993-.883L14 12a1 1 0 0 0-1-1h-1V9a1 1 0 0 1 .883-.993L13 8a1 1 0 0 1 .993.883L14 9a1 1 0 0 0 2 0 3 3 0 0 0-3-3"/></svg>
